X:114
T:Foxy Mary
B:Joyce, P. W.; "Old Irish Folk Music and Songs"
R:jig
L:1/8
M:6/8
Z:Allan Garvin
K:G
DED D2 A|AGE c3|DED D2 A|AGE E2 D|
DED D2 A|AGE c3|BdB c2 A|AGE E2 D:|
c3 edc|BAB/c/ dBG|c3 ecA|AGE E2 D|
c3 edc BAG BdB|AGE c2 A|AGE E2D|
c3 edc|BAB/c/ dBG|c3 edc|e2 d efg|
c3 edc|BAG BdB|AGE c2 A|AGE E2 D||
